X: 527
%
U:~=!turn!
T: Null Thar nan Eileanun
T: Over the Isles to America
C:Jenny Cameron
O:Scotland
B:Keith Norman MacDonald : "The Skye collection of the best reels & strathspeys extant" : 1887
Z:Ralph Palmer
R:Reel
M:C
L:1/8
K:D
g | f2 (df) ecAc | acAc e2 dg | [1 f2 (df) ecAc | dBGB d2 d :|
[2 .a.f.g.e .f.d.g.e | BGGB d2 d |: g | (f/g/a)ec eAAg | (f/g/a)ec e2 dg | (f/g/a)ec dfge |
dBGB d2 d:: e | defg afdf | afdf a2 fe | defg afdf | geBe [1 g2 g :: [2 g2 eg ||
f>ded cA a2 | c2 Ac e2 eg | f>ded cA g2 | BBGB d2 dg | f>ded cA a2 |
c2 Ac e2 eg | faec efge | dBGB d2 d || g | fAeA fAeA | cAAc e2 eg |
fAeA fAeA | BGGB d2 dg | fAeA fAeA | cAAc e2 eg | .a.f.g.e .f.d.g.e | BGGB d2 d |]


